X: 5
T: Bobby Casey's
C: Michael Dwyer
Z: Sean Perry
S: https://thesession.org/tunes/270#setting52123
R: reel
M: 4/4
L: 1/8
K: Dmaj
|: DFAd BdAB | defd edBA | DFAd ~B2AB | dggf edBA |
DFAd ~B2AB | defd ef g/f/e | f2af ga~fe | defd edBA :|
|: d3f eA A/A/A | defd afef | defd eB ~B2 | gB ~B2 dBAB |
dgfd edfd | d/d/d fd edBA | defg a2 ab |1 afea fedc :|2 afea fedB ||

